X:291
T:The Grassy Turf
M:2/4
L:1/8
K:G
G/A/|:BB c/B/A/G/|BG gf/e/|dB c/B/A/G/|FA AG/A/|
BB c/B/A/G/|BG gf/e/|d/B/A/G/ F/A/B/c/|BG GG/A/:|
Bc Bg|dB c/B/A/G/|Bc Bg|dB dc/B/|
c/d/e/c/ B/c/d/B/|AA AA/B/|c/d/e/c/ B/c/d/B/|AA AG/A/|
BG dG|e/f/g/e/ dG/A/|BG dG|e/f/g/e/ dc/B/|
c/d/e/c/ Bg|AA AA/B/|c/d/e/c/ Bd|BG G2:|
